icons/file_type_buckbuild.svg

<svg xmlns="http://www.w3.org/2000/svg" viewBox="0 0 32 32"><path d="M9.929 3.809H7.9v5.748l2.478 2.478H7.4L4.156 8.789v-4.98H2v5.9l4.411 4.411h5.947l2.131 2.131h-5.7L13.6 21.2l-7.041 6.991h2.776l7.037-7.091-2.672-2.672h14.219v.892l-6.145 3.667-5.154 5.2h2.924l3.518-3.568L30 20.46v-4.212h-6.542l-2.23-2.23 2.527-2.527v-5.65h-2.106v4.708l-2.056 2.032-1.834-1.92v-4.82h-1.982v5.749l4.635 4.658h-2.828L9.929 8.665V3.809" style="fill:#4a69a5"/><path d="M20.683 19.717h-2.775l1.338 1.437 1.437-1.437" style="fill:#4a69a5"/></svg>

<svg xmlns="http://www.w3.org/2000/svg" viewBox="0 0 32 32"><title>file_type_buckbuild</title><path d="M9.929,3.809H7.9V9.557l2.478,2.478H7.4L4.156,8.789V3.809H2v5.9l4.411,4.411h5.947l2.131,2.131h-5.7L13.6,21.2,6.559,28.191H9.335L16.372,21.1,13.7,18.428H27.919v.892l-6.145,3.667-5.154,5.2h2.924l3.518-3.568L30,20.46V16.248H23.458l-2.23-2.23,2.527-2.527V5.841H21.649v4.708l-2.056,2.032-1.834-1.92V5.841H15.777v5.749l4.635,4.658H17.584L9.929,8.665V3.809" style="fill:#4a69a5"/><path d="M20.683,19.717H17.908l1.338,1.437,1.437-1.437" style="fill:#4a69a5"/></svg>
